X:1
T:Thomas of Winesbury
M:4/4
L:1/8
K:C
 D| E2 EE c2 cd| c2 ED D2 CD| E2 E2 c3 d| e6| cc| ee dc B2 AG| Ac E3/2 D/2 D2 CD|\
 E2 DC D2 EG| A2-c-B A2| CD| E2 DC D2 EG| A6 z||

